X:1
T:Match Breaking. HSJJ.072
L:1/8
Q:3/8=110
M:6/8
I:linebreak $
K:F
V:1 treble 
V:1
 c | f2 a (f2 c) | A2 c (B2 c) | A2 c cBA | GGG G2 c |$ f2 a f2 c | ^c2 d b2 g | f2 e c'2 e | %8
 f2 z z2 ||$ a | b2 g efg | a2 f fga | g2 c cde | f2 c a2 f |$ b2 g efg | a2 f fga | gc'e gfe | %17
 c2 z z2!D.C.! |] %18
